public/flags/EC.svg

<svg fill="none" height="53" viewBox="0 0 61 53" width="61" xmlns="http://www.w3.org/2000/svg" xmlns:xlink="http://www.w3.org/1999/xlink"><mask id="a" height="43" maskUnits="userSpaceOnUse" width="59" x="1" y="3"><rect fill="#fff" height="42.5" rx="4.24286" width="59" x="1" y="3"/></mask><rect fill="#fff" height="42.5" rx="4.24286" width="59" x="1" y="3"/><g mask="url(#a)"><g clip-rule="evenodd" fill-rule="evenodd"><path d="m1 34.1667h59v-11.3334h-59z" fill="#0748ae"/><path d="m1 45.5h59v-11.3333h-59z" fill="#de2035"/><path d="m1 22.8333h59v-19.8333h-59z" fill="#ffd935"/><path d="m27.1284 20c-1.3648 1.0338-2.2475 2.6798-2.2475 4.5337 0 3.1296 2.5157 5.6666 5.619 5.6666s5.6191-2.537 5.6191-5.6666c0-1.8539-.8828-3.4999-2.2476-4.5337l-1.9667 5.9503h-2.8096z" fill="#ffd935"/><path d="m30.5 18.5833 1.4047 7.0833h-2.8095z" fill="#5fc0dc"/></g><path d="m37.5237 15.75-4.2143-1.4167-2.8095 2.8334-2.8095-2.8334-4.2143 1.4167" opacity=".66" stroke="#3f2821" stroke-linecap="round" stroke-linejoin="round" stroke-width="1.41429"/></g></svg>

<svg width="61" height="53" viewBox="0 0 61 53" fill="none" xmlns="http://www.w3.org/2000/svg">
<rect x="1" y="3" width="59" height="42.5" rx="4.24286" fill="white"/>
<mask id="mask0" mask-type="alpha" maskUnits="userSpaceOnUse" x="1" y="3" width="59" height="43">
<rect x="1" y="3" width="59" height="42.5" rx="4.24286" fill="white"/>
</mask>
<g mask="url(#mask0)">
<path fill-rule="evenodd" clip-rule="evenodd" d="M1 34.1667H60V22.8333H1V34.1667Z" fill="#0748AE"/>
<path fill-rule="evenodd" clip-rule="evenodd" d="M1 45.5H60V34.1667H1V45.5Z" fill="#DE2035"/>
<path fill-rule="evenodd" clip-rule="evenodd" d="M1 22.8333H60V3H1V22.8333Z" fill="#FFD935"/>
<path fill-rule="evenodd" clip-rule="evenodd" d="M27.1284 20C25.7636 21.0338 24.8809 22.6798 24.8809 24.5337C24.8809 27.6633 27.3966 30.2003 30.4999 30.2003C33.6032 30.2003 36.119 27.6633 36.119 24.5337C36.119 22.6798 35.2362 21.0338 33.8714 20L31.9047 25.9503H29.0951L27.1284 20Z" fill="#FFD935"/>
<path fill-rule="evenodd" clip-rule="evenodd" d="M30.5 18.5833L31.9047 25.6666H29.0952L30.5 18.5833Z" fill="#5FC0DC"/>
<path opacity="0.66" d="M37.5237 15.75L33.3094 14.3333L30.4999 17.1667L27.6904 14.3333L23.4761 15.75" stroke="#3F2821" stroke-width="1.41429" stroke-linecap="round" stroke-linejoin="round"/>
</g>
</svg>
